X:1
T:Return from Fingal, The
R:march
M:2/4
L:1/8
K:Edor
B/A/G/F/ E/F/G/A/|B/A/G/F/ E>B|A/G/F/A/ dA|BA B/c/d|
B/A/G/F/ E/F/G/A/|B/A/G/F/ E>B|A/G/F/A/ dA|FE E2:|
|:fe ed/c/|BA d>A|BA dA|BA B/c/d/e/|
fe ed/c/|BA d>B|A/G/F/A/ dA|FE E2:|
</abc>
<abc>
